X:1
T:Wohin mit der Freud?
T:Friedrich Silcher
T:Robert Reinick
T:Wohin mit der Freud?
T:Ach du klarblauer Himmel, bearbeitet für gemischten Chor
T:CPDL - Creative Commons Attribution Non Commercial 3.0
T:CPDL - Creative Commons Attribution Non Commercial 3.0
C:Friedrich Silcher
Z:Robert Reinick
Z:CPDL - Creative Commons Attribution Non Commercial 3.0
%%score [ ( 1 2 ) ( 3 4 ) ]
L:1/8
Q:1/4=60
M:3/8
K:E
V:1 treble nm="Sopran\nAlt"
V:2 treble 
V:3 bass nm="Tenor\nBass"
V:4 bass 
V:1
"^Sehr lebhaft und heiter" !>!G/>A/ | B!>!F>G |!>(! (F!breath!E)!>)!E/>E/ | !>!e>dc | %4
w: ~1.~Ach du|klar- blau- er|Him- mel, und wie|schön bist du|
w: ~2.~Ach du|licht- grü- ne|Welt, _ ~und wie|strahlst du voll|
w: ~3.~Und da|sah ich mein|Lieb _ un- term|Lin- den- baum|
 !breath!B2"^cresc." B/>c/ | dBc | d!breath!B(^A/>G/) | !>!Fc>d | %8
w: heut! möcht' ans|Herz dich gleich|drü- cken vor _|Ju- bel und|
w: Lust! und ich|möcht' mich gleich|wer- fen dir vor|Lieb' an die|
w: steh'n, ~war so|klar wie der|Him- mel, wie die|Er- de so|
 !breath!B2!p![Q:1/4=56]"^Etwas langsamer" c/>B/ | AA G/B/ | !breath!F2 F/>G/ |!<(! BA>!<)!A | %12
w: Freud'. A- ber|'s~geht doch nicht *|an, denn du|bist mir zu|
w: Brust; ~a- ber|'s~geht doch nicht *|an, ~und das|ist ja mein|
w: schön; ~und wir|küss- ten uns *|beid', ~und wir|san- gen vor|
 !breath!d2!f![Q:1/4=60]"^Bewegt" B/>B/ | !^!e!^!d!^!c |!>(! B>!breath!A!>)!!p!G | GE F/B/ | %16
w: weit, und mit|all' mei- ner|Freud', * was|fang' ich doch *|
w: Leid, ~und mit|all' mei- ner|Freud', * ~was|fang' ich doch *|
w: Lust, ~und da|hab' ich ge-|wusst, * ~wo-|hin mit der *|
 !breath!B2!ff![Q:1/4=56]"^rit." B/>B/ | !^!e!^!d!^!c | %18
w: an, und mit|all mei- ner|
w: an, ~und mit|all mei- ner|
w: Freud', ~und da|hab' ich ge-|
!>(! B>!breath!!fermata!A!>)!!pp![Q:1/4=52]"^Langsam"G | GE F/B/ | !fermata!G2 |] %21
w: Freud', * was|fang' ich doch *|an?|
w: Freud', * ~was|fang' ich doch *|an?|
w: wusst, * ~wo-|hin mit der *|Freud'.|
V:2
 E/>E/ | ED>D | (DE)E/>E/ | E>EE | E2 F/>F/ | FFF | FF(F/>E/) | DE>F | D2 =A/>G/ | FFE | D2 D/>E/ | %11
 GF>F | A2 F/>B/ | BAG | F2 E | ECD | E2 F/>B/ | BAG | F2 E | ECD | E2 |] %21
V:3
 !>!B,/>B,/ | B,!>!B,>B, |!>(! B,-!breath!B,!>)!G,/>G,/ | !>!C>B,A, | %4
 !breath!G,2"^cresc." B,/>^A,/ | B,F,^A, | B,!breath!B,B,/->B,/ | !>!B,^A,>A, | %8
 !breath!B,2!p! B,/>B,/ | B,B,B, | !breath!B,2 B,/>B,/ |!<(! B,B,>!<)!D | !breath!F2!f! D/>D/ | %13
 !^!E!^!B,!^!B, |!>(! !breath!B,2!>)!!p! B, | B,B,A, | !breath!G,2!ff! D/>D/ | !^!E!^!B,!^!B, | %18
!>(! !breath!!fermata!B,2!>)!!pp! B, | B,B,B, | !fermata!B,2 |] %21
V:4
 E,/>F,/ | G,A,>A, | (A,G,)E,/>E,/ | A,,>B,, C,/D,/ | E,2 D,/>C,/ | B,,D,C, | B,,D,E,/->E,/ | %7
 F,F,>F, | B,,2 B,,/>C,/ | D,D, E,/G,/ | B,2 A,/>G,/ | D,D,>B,, | B,2 B,/>A,/ | G,F,E, | %14
 D,2 E,/G,/ | B,B,,B,, | E,2 B,/>A,/ | G,F,E, | D,2 E, | B,,B,,B,, | [E,,E,]2 |] %21

